ui/StatusQ/src/assets/img/icons/profile/help.svg

<svg fill="none" height="24" viewBox="0 0 24 24" width="24" xmlns="http://www.w3.org/2000/svg"><g fill="#4360df"><path d="m8.25 9c0-2.07421 1.67579-3.75 3.75-3.75 2.0742 0 3.75 1.67579 3.75 3.75 0 .7486-.3897 1.3772-.8051 1.8426-.4235.4745-.9522.8682-1.4048 1.1602-.4973.3209-.7901.8127-.7901 1.2943v.7029c0 .4142-.3358.75-.75.75s-.75-.3358-.75-.75v-.7029c0-1.0964.6481-2.02 1.4769-2.5547.3971-.2562.8016-.5655 1.0989-.89866.3055-.34226.4242-.6259.4242-.84374 0-1.24579-1.0042-2.25-2.25-2.25s-2.25 1.00421-2.25 2.25c0 .41421-.33579.75-.75.75s-.75-.33579-.75-.75z"/><path d="m12 18.75c.6904 0 1.25-.5596 1.25-1.25s-.5596-1.25-1.25-1.25-1.25.5596-1.25 1.25.5596 1.25 1.25 1.25z"/><path clip-rule="evenodd" d="m2 12c0 5.5228 4.47715 10 10 10 5.5228 0 10-4.4772 10-10 0-5.52285-4.4772-10-10-10-5.52285 0-10 4.47715-10 10zm1.5 0c0 4.6944 3.80558 8.5 8.5 8.5 4.6944 0 8.5-3.8056 8.5-8.5 0-4.69442-3.8056-8.5-8.5-8.5-4.69442 0-8.5 3.80558-8.5 8.5z" fill-rule="evenodd"/></g></svg>

<svg width="24" height="24" viewBox="0 0 24 24" fill="none" xmlns="http://www.w3.org/2000/svg">
<path d="M8.25 9C8.25 6.92579 9.92579 5.25 12 5.25C14.0742 5.25 15.75 6.92579 15.75 9C15.75 9.7486 15.3603 10.3772 14.9449 10.8426C14.5214 11.3171 13.9927 11.7108 13.5401 12.0028C13.0428 12.3237 12.75 12.8155 12.75 13.2971V14C12.75 14.4142 12.4142 14.75 12 14.75C11.5858 14.75 11.25 14.4142 11.25 14V13.2971C11.25 12.2007 11.8981 11.2771 12.7269 10.7424C13.124 10.4862 13.5285 10.1769 13.8258 9.84374C14.1313 9.50148 14.25 9.21784 14.25 9C14.25 7.75421 13.2458 6.75 12 6.75C10.7542 6.75 9.75 7.75421 9.75 9C9.75 9.41421 9.41421 9.75 9 9.75C8.58579 9.75 8.25 9.41421 8.25 9Z" fill="#4360DF"/>
<path d="M12 18.75C12.6904 18.75 13.25 18.1904 13.25 17.5C13.25 16.8096 12.6904 16.25 12 16.25C11.3096 16.25 10.75 16.8096 10.75 17.5C10.75 18.1904 11.3096 18.75 12 18.75Z" fill="#4360DF"/>
<path fill-rule="evenodd" clip-rule="evenodd" d="M2 12C2 17.5228 6.47715 22 12 22C17.5228 22 22 17.5228 22 12C22 6.47715 17.5228 2 12 2C6.47715 2 2 6.47715 2 12ZM3.5 12C3.5 16.6944 7.30558 20.5 12 20.5C16.6944 20.5 20.5 16.6944 20.5 12C20.5 7.30558 16.6944 3.5 12 3.5C7.30558 3.5 3.5 7.30558 3.5 12Z" fill="#4360DF"/>
</svg>
